X:0864
M:6/8
L:1/16
Q:3/8=80 "Slow"
K:E Minor
 B4 d2 e4  f2|g3`ag2 {g}f4e2|   d2```B2```g2 {g}f4 e2|{e}d2B2e2   E4F2|
 G3AG2 d2B2d2|edefga {g}f4e2|{e}d2{c}B2{A}G2    A3cBA|{A}G2E2E2  TE6 :|
 g4a2 b4c'2|b2a2g2  f2``e2`d2|  Tg2```.f2``.e2   .a2`````.g2``.f2|.b2.a2.g2    f2``````e2```d2|
 g4a2 b4c'2|b2a2g2 (fg)(ef)d2|(3gag (3(fgf) e2 (3(aba) (3(gag) f2|.b2.a2.g2 (3(fgf) (3(efe) d2|
 e2E2E2   E2F2G2| G2A2B2  B2^c2`d2 |\
 d2D2D2   D2E2F2| G2A2B2  B2^c2^d2 |\
 e2E2F2   G2A2B2| B3`AB2  E6      |]

